X:1
T:Rocked in the Cradle of the Deep
T:Rocked in the Cradle of the Deep
T:Joseph Philip Knight
T:Emma C. Hart Willard, 1831
T:Public Domain Courtesy of the Cyber Hymnal™
C:Joseph Philip Knight
Z:Public Domain
Z:Courtesy of the Cyber Hymnal™
%%score ( 1 2 ) ( 3 4 )
L:1/8
Q:1/4=105
M:none
K:Bb
V:1 treble 
V:2 treble 
V:3 bass 
V:4 bass 
V:1
 [DF]2 [DF]>[DF] [^C=E][DF][FB][F^c] | [Fd]4- [Fd][Fd][Fc][Fd] | [Af]4- [Af][Ge][Fd][Ec] | %3
w: 1.~Rocked in the cra- dle of the|deep, * I lay me|down * in peace to|
w: 2.~And such the trust that still were|mine, * Though storm- y|winds * sweep o’er the|
 [DB]6 [DF] | [DF]3 [DF] [^C=E][DF][FB][F^c] | [Fd]4- [Fd][Fd][Fd][B=e] | %6
w: sleep; Se-|cure I rest up- on the|wave, * For Thou, O|
w: brine, Or|though the temp- est’s fier- y|breath * Rouse me from|
 [Af]2 ([G=e]>[Fd]) [=EA]3 [EA] | [FA]7 [Fd] | [Fd]3 [Fd] [F^c][Fd][Fe]>[Fd] | [=Ec]6 [Ec] | %10
w: Lord, hast * power to|save. I|know Thou wilt not slight my|call, For|
w: sleep to * wreck and|death, In|o- cean cave still safe with|Thee, The|
 [Ec]3 [Ec] [E=B][Ec][Fd]>[Ec] | [DB]6 ||"^Refrain" [DF] | [DF]3 [DF] [^C=E][DF][FB][F^c] | d6 x6 | %15
w: Thou dost mark the spar- row’s|fall.||||
w: germ of im- mor- tal- i-|ty.||||
 F2 F>F F[Ge][Fd]>[Fc] | [Fd]6 [DF] | [DF]3 [DF] [^C=E][DF][FB][F^c] | [Fd]6 | %19
w: ||||
w: ||||
 F2 F>F =EF[_EG]>[EF] | [DB]8 |] %21
w: ||
w: ||
V:2
 x8 | x8 | x8 | x7 | x8 | x8 | x8 | x8 | x8 | x7 | x8 | x6 || x | x8 | F12 | F2 F>F F x3 | x7 | %17
 x8 | x6 | F2 F>F =EF x2 | x8 |] %21
V:3
 [B,,B,]2 [B,,B,]>[B,,B,] [B,,B,][B,,B,][D,B,][F,A,] | [B,,B,]4- [B,,B,][B,,B,][F,A,]B, | %2
w: ~ ~ ~ ~ ~ ~ ~|~ * ~ ~ ~|
 [F,C]4- [F,C][F,C][F,A,][F,A,] | [B,,B,]6 [B,,B,] | [B,,B,]3 [B,,B,] [B,,B,][B,,B,][D,B,][F,A,] | %5
w: ~ * ~ ~ ~|~ ~|~ ~ ~ ~ ~ ~|
 [B,,B,]4- [B,,B,]B,B,[G,D] | [A,D]2 ([A,^C]>[A,D]) [A,C]3 [A,C] | [D,D]7 [G,=B,] | %8
w: ~ * ~ ~ ~|~ ~ * ~ ~|~ ~|
 [G,=B,]3 [G,B,] [G,B,][G,B,][G,B,]>[G,B,] | [C,B,]6 [C,B,] | %10
w: ~ ~ ~ ~ ~ ~|~ ~|
 [F,A,]3 [F,A,] [F,A,][F,A,][F,A,]>[F,A,] | [B,,B,]6 || [B,,B,] | %13
w: ~ ~ ~ ~ ~ ~|~|And|
 [B,,B,]3 [B,,B,] [B,,B,][B,,B,][D,B,][F,A,] | B,6 x6 | %15
w: calm and peace- ful is my|sleep,|
 [F,A,]2 [F,A,]>[F,A,] [F,A,][F,A,][F,A,]>[F,A,] | [B,,B,]6 [B,,B,] | %17
w: Rocked in the cra- dle of the|deep; And|
 [B,,B,]3 [B,,B,] [B,,B,][B,,B,][D,B,][F,A,] | B,6 | %19
w: calm and peace- ful is my|sleep,|
 [F,A,]2 [F,A,]>[F,A,] [F,A,][F,A,][F,A,]>[F,A,] | [B,,B,]8 |] %21
w: Rocked in the cra- dle of the|deep.|
V:4
 x8 | x8 | x8 | x7 | x8 | x5 B,B, x | x8 | x8 | x8 | x7 | x8 | x6 || x | x8 | B,,12 | x8 | x7 | %17
 x8 | B,6 | x8 | x8 |] %21

